public/images/hashed/7b4ed052e208b38207dbd68588b61a4c.svg

<?xml version="1.0" encoding="UTF-8"?>
<svg width="80px" height="80px" viewBox="0 0 80 80" version="1.1" xmlns="http://www.w3.org/2000/svg" xmlns:xlink="http://www.w3.org/1999/xlink">
    <!-- Generator: Sketch 64 (93537) - https://sketch.com -->
    <title>Icon-Architecture/64/Arch_AWS-Lambda_64</title>
    <desc>Created with Sketch.</desc>
    <defs>
        <linearGradient x1="0%" y1="100%" x2="100%" y2="0%" id="linearGradient-1">
            <stop stop-color="#C8511B" offset="0%"></stop>
            <stop stop-color="#FF9900" offset="100%"></stop>
        </linearGradient>
    </defs>
    <g id="Icon-Architecture/64/Arch_AWS-Lambda_64" stroke="none" stroke-width="1" fill="none" fill-rule="evenodd">
        <g id="Icon-Architecture-BG/64/Compute" fill="url(#linearGradient-1)">
            <rect id="Rectangle" x="0" y="0" width="80" height="80"></rect>
        </g>
        <path d="M28.0075352,66 L15.5907274,66 L29.3235885,37.296 L35.5460249,50.106 L28.0075352,66 Z M30.2196674,34.553 C30.0512768,34.208 29.7004629,33.989 29.3175745,33.989 L29.3145676,33.989 C28.9286723,33.99 28.5778583,34.211 28.4124746,34.558 L13.097944,66.569 C12.9495999,66.879 12.9706487,67.243 13.1550766,67.534 C13.3374998,67.824 13.6582439,68 14.0020416,68 L28.6420072,68 C29.0299071,68 29.3817234,67.777 29.5481094,67.428 L37.563706,50.528 C37.693006,50.254 37.6920037,49.937 37.5586944,49.665 L30.2196674,34.553 Z M64.9953491,66 L52.6587274,66 L32.866809,24.57 C32.7014253,24.222 32.3486067,24 31.9617091,24 L23.8899822,24 L23.8990031,14 L39.7197081,14 L59.4204149,55.429 C59.5857986,55.777 59.9386172,56 60.3255148,56 L64.9953491,56 L64.9953491,66 Z M65.9976745,54 L60.9599868,54 L41.25928,12.571 C41.0938963,12.223 40.7410777,12 40.3531778,12 L22.89768,12 C22.3453987,12 21.8963569,12.447 21.8953545,12.999 L21.884329,24.999 C21.884329,25.265 21.9885708,25.519 22.1780103,25.707 C22.3654452,25.895 22.6200358,26 22.8866544,26 L31.3292417,26 L51.1221625,67.43 C51.2885485,67.778 51.6393624,68 52.02626,68 L65.9976745,68 C66.5519605,68 67,67.552 67,67 L67,55 C67,54.448 66.5519605,54 65.9976745,54 L65.9976745,54 Z" id="AWS-Lambda_Icon_64_Squid" fill="#FFFFFF"></path>
    </g>
</svg>

<svg xmlns="http://www.w3.org/2000/svg" width="80" height="80"><defs><linearGradient id="a" x1="0%" x2="100%" y1="100%" y2="0%"><stop offset="0%" stop-color="#C8511B"/><stop offset="100%" stop-color="#F90"/></linearGradient></defs><g fill="none" fill-rule="evenodd"><path fill="url(#a)" d="M0 0h80v80H0z"/><path fill="#FFF" d="M28.008 66H15.59l13.733-28.704 6.222 12.81L28.008 66Zm2.212-31.447a1.005 1.005 0 0 0-.902-.564h-.003a1.001 1.001 0 0 0-.903.569L13.098 66.569A1 1 0 0 0 14.002 68h14.64c.388 0 .74-.223.906-.572l8.016-16.9a.995.995 0 0 0-.005-.863l-7.34-15.112ZM64.995 66H52.66L32.867 24.57a1.002 1.002 0 0 0-.905-.57H23.89l.009-10h15.82L59.42 55.429c.166.348.519.571.906.571h4.67v10Zm1.003-12H60.96l-19.7-41.429a1.003 1.003 0 0 0-.907-.571H22.898c-.553 0-1.002.447-1.003.999l-.01 12A1 1 0 0 0 22.886 26h8.442l19.793 41.43c.167.348.517.57.904.57h13.972A1 1 0 0 0 67 67V55a1 1 0 0 0-1.002-1Z"/></g></svg>
